X: 3293
T: STOOL OF REPENTANCE
%R: jig
B: James Kerr "Merry Melodies" v.3 p.32 #293
Z: 2016 John Chambers <jc:trillian.mit.edu>
M: 6/8
L: 1/8
K: G
ud |\
g2d B2d | gfe dcB | gee e2d | ege e2d |\
g2d B2d | gfe dcB | c2d e2d | egB A2 :|
|: d |\
BGG dGG | BGG dcB | cAA eAA | cAA edc |\
BGG dGG | BGG dcB | c2d e2d | egB A2 :|

%%sep 1 1 500
%%sep 1 1 500

